symbols/web/account_balance/materialsymbolsoutlined/account_balance_wght700grad200fill1_40px.svg

<svg xmlns="http://www.w3.org/2000/svg" height="40" width="40"><path d="M7.5 29.792v-13.25h3.917v13.25Zm10.708 0v-13.25h3.834v13.25ZM2.042 35.917V31.5h35.916v4.417Zm26.541-6.125v-13.25H32.5v13.25Zm-26.541-15V10.25L20 .5l17.958 9.75v4.542Z"/></svg>

<svg xmlns="http://www.w3.org/2000/svg" height="40" width="40"><path d="M7.5 29.792V16.542H11.417V29.792ZM18.208 29.792V16.542H22.042V29.792ZM2.042 35.917V31.5H37.958V35.917ZM28.583 29.792V16.542H32.5V29.792ZM2.042 14.792V10.25L20 0.5L37.958 10.25V14.792Z"/></svg>
